svgs/1F602.svg

<svg xmlns="http://www.w3.org/2000/svg" xmlns:xlink="http://www.w3.org/1999/xlink" preserveAspectRatio="none" viewBox="0 0 72 72"><defs><path id="a" fill="#FCC21B" d="M127.65 93.35q0-27-8.5-47.05-15.6-36.65-55.3-36.65Q24.2 9.65 8.6 46.3.1 66.35.1 93.35q0 10.4 18.7 17.7 18.65 7.35 45.05 7.35 26.45 0 45.1-7.35 18.7-7.3 18.7-17.7z"/><path id="b" fill="#ED6C30" d="M52.9 38.1q-.253.054-4.95 1.4-4.692 1.337-12.05 1.4-7.309.063-11.85-1.35-4.547-1.404-4.75-1.45-1.9-.2-3.15.65-1.75 1.2-.7 4.75 1 3.6 3.85 6.6 2.6 2.65 5.9 4.35 4.95 2.6 10.9 2.6t10.9-2.6q3.25-1.7 5.8-4.35 2.9-3 3.95-6.6 1.05-3.55-.75-4.75-1.2-.85-3.1-.65z"/><path id="c" fill="#40C0E7" d="M120.05 68.4q-1.95-3.55-5.55-6.05-4.55-3.05-8.5-4.4-1.15-.4-1.85-.6-1.25-.35-1.9-.35-1.7.15-1.2 2.65 2 9.35 2.35 11.3.15 1.3 1.15 4 1.05 3 2 4.5.9 1.5 3 2.6 2.05 1.1 4.05 1.2 2.8.1 5.2-1.8 2.5-2 2.85-5.1.45-4.15-1.6-7.95z"/><path id="d" fill="#40C0E7" d="M23.8 57.35q-1.35.45-1.85.6-3.95 1.35-8.5 4.4-3.6 2.5-5.5 6.05-2.1 3.8-1.65 7.95.35 3.1 2.85 5.1 2.4 1.9 5.2 1.8 2-.1 4-1.2 2.1-1.1 3.05-2.6.95-1.5 2.05-4.5.95-2.65 1.15-4 1.5-7.35 2.25-11.3.6-2.5-1.1-2.65-.7 0-1.95.35z"/><path id="e" fill="#2F2F2F" d="M52.4 47.8q-4.65-3.7-10.8-3.7-6.1 0-10.75 3.7-2.35 1.85-3.6 3.9-.55 1-.3 2.05.3 1.1 1.25 1.65.95.6 2.05.3 1.1-.25 1.7-1.2.45-1.05 2.4-2.6 3.15-2.4 7.25-2.35 4.15 0 7.25 2.4 1.6 1.2 2.45 2.55.75 1.3 2.35 1.3.75 0 1.4-.35.95-.6 1.25-1.7.25-1.1-.3-2.05-1.25-2.05-3.6-3.9z"/><path id="f" fill="#2F2F2F" d="M97.35 47.75q-4.65-3.7-10.75-3.7-6.15 0-10.8 3.7-3.5 3.8-3.6 3.95-.55 1-.3 2.05.3 1.1 1.25 1.65.95.6 2.1.3 1.1-.25 1.65-1.25l2.35-2.5q3.15-2.45 7.35-2.45 4.1 0 7.25 2.4 1.6 1.2 2.4 2.55.8 1.35 2.35 1.35.7 0 1.4-.4.95-.55 1.25-1.65.25-1.1-.3-2.05-1.25-2.05-3.6-3.95z"/><path id="g" fill="none" stroke="#2F2F2F" stroke-linecap="round" stroke-linejoin="round" stroke-width="3" d="M48.55 22.4q5.6.3 8.6 4.6m-33.7-4.6q-5.55.25-8.55 4.55"/></defs><use transform="scale(.5625)" xlink:href="#a"/><use transform="matrix(1.03801 0 0 1 -1.45 0)" xlink:href="#b"/><use transform="matrix(.6946 0 0 .6946 -13.1 -6.2)" xlink:href="#c"/><use transform="matrix(.6946 0 0 .6946 -3.75 -6.2)" xlink:href="#d"/><use transform="matrix(.55394 -.09767 .09767 .55394 -4.5 6.4)" xlink:href="#e"/><use transform="scale(.56248) rotate(10 66.913 50.97)" xlink:href="#f"/><use transform="translate(0 -1.05)" xlink:href="#g"/></svg>

<svg xmlns="http://www.w3.org/2000/svg" version="1.1" xmlns:xlink="http://www.w3.org/1999/xlink" preserveAspectRatio="none" x="0px" y="0px" width="72px" height="72px" viewBox="0 0 72 72">
<defs>
<g id="Layer0_0_FILL">
<path fill="#FCC21B" stroke="none" d="
M 127.65 93.35
Q 127.65 66.35 119.15 46.3 103.55 9.65 63.85 9.65 24.2 9.65 8.6 46.3 0.1 66.35 0.1 93.35 0.1 103.75 18.8 111.05 37.45 118.4 63.85 118.4 90.3 118.4 108.95 111.05 127.65 103.75 127.65 93.35 Z"/>
</g>

<g id="Layer0_1_FILL">
<path fill="#ED6C30" stroke="none" d="
M 52.9 38.1
Q 52.6470703125 38.154296875 47.95 39.5 43.2583984375 40.8369140625 35.9 40.9 28.59140625 40.962890625 24.05 39.55 19.502734375 38.1455078125 19.3 38.1 17.4 37.9 16.15 38.75 14.4 39.95 15.45 43.5 16.45 47.1 19.3 50.1 21.9 52.75 25.2 54.45 30.15 57.05 36.1 57.05 42.05 57.05 47 54.45 50.25 52.75 52.8 50.1 55.7 47.1 56.75 43.5 57.8 39.95 56 38.75 54.8 37.9 52.9 38.1 Z"/>
</g>

<g id="Layer0_2_MEMBER_0_FILL">
<path fill="#40C0E7" stroke="none" d="
M 120.05 68.4
Q 118.1 64.85 114.5 62.35 109.95 59.3 106 57.95 104.85 57.55 104.15 57.35 102.9 57 102.25 57 100.55 57.15 101.05 59.65 103.05 69 103.4 70.95 103.55 72.25 104.55 74.95 105.6 77.95 106.55 79.45 107.45 80.95 109.55 82.05 111.6 83.15 113.6 83.25 116.4 83.35 118.8 81.45 121.3 79.45 121.65 76.35 122.1 72.2 120.05 68.4 Z"/>
</g>

<g id="Layer0_2_MEMBER_1_FILL">
<path fill="#40C0E7" stroke="none" d="
M 23.8 57.35
Q 22.45 57.8 21.95 57.95 18 59.3 13.45 62.35 9.85 64.85 7.95 68.4 5.85 72.2 6.3 76.35 6.65 79.45 9.15 81.45 11.55 83.35 14.35 83.25 16.35 83.15 18.35 82.05 20.45 80.95 21.4 79.45 22.35 77.95 23.45 74.95 24.4 72.3 24.6 70.95 26.1 63.6 26.85 59.65 27.45 57.15 25.75 57 25.05 57 23.8 57.35 Z"/>
</g>

<g id="Layer0_3_MEMBER_0_FILL">
<path fill="#2F2F2F" stroke="none" d="
M 52.4 47.8
Q 47.75 44.1 41.6 44.1 35.5 44.1 30.85 47.8 28.5 49.65 27.25 51.7 26.7 52.7 26.95 53.75 27.25 54.85 28.2 55.4 29.15 56 30.25 55.7 31.35 55.45 31.95 54.5 32.4 53.45 34.35 51.9 37.5 49.5 41.6 49.55 45.75 49.55 48.85 51.95 50.45 53.15 51.3 54.5 52.05 55.8 53.65 55.8 54.4 55.8 55.05 55.45 56 54.85 56.3 53.75 56.55 52.65 56 51.7 54.75 49.65 52.4 47.8 Z"/>
</g>

<g id="Layer0_3_MEMBER_1_FILL">
<path fill="#2F2F2F" stroke="none" d="
M 97.35 47.75
Q 92.7 44.05 86.6 44.05 80.45 44.05 75.8 47.75 72.3 51.55 72.2 51.7 71.65 52.7 71.9 53.75 72.2 54.85 73.15 55.4 74.1 56 75.25 55.7 76.35 55.45 76.9 54.45
L 79.25 51.95
Q 82.4 49.5 86.6 49.5 90.7 49.5 93.85 51.9 95.45 53.1 96.25 54.45 97.05 55.8 98.6 55.8 99.3 55.8 100 55.4 100.95 54.85 101.25 53.75 101.5 52.65 100.95 51.7 99.7 49.65 97.35 47.75 Z"/>
</g>

<path id="Layer0_4_1_STROKES" stroke="#2F2F2F" stroke-width="3" stroke-linejoin="round" stroke-linecap="round" fill="none" d="
M 48.55 22.4
Q 54.15 22.7 57.15 27
M 23.45 22.4
Q 17.9 22.65 14.9 26.95"/>
</defs>

<g id="Layer_1">
<g transform="matrix( 0.5625, 0, 0, 0.5625, 0,0) ">
<use xlink:href="#Layer0_0_FILL"/>
</g>

<g transform="matrix( 1.0380096435546875, 0, 0, 1, -1.45,0) ">
<use xlink:href="#Layer0_1_FILL"/>
</g>

<g transform="matrix( 0.6945953369140625, 0, 0, 0.6945953369140625, -13.1,-6.2) ">
<use xlink:href="#Layer0_2_MEMBER_0_FILL"/>
</g>

<g transform="matrix( 0.6945953369140625, 0, 0, 0.6945953369140625, -3.75,-6.2) ">
<use xlink:href="#Layer0_2_MEMBER_1_FILL"/>
</g>

<g transform="matrix( 0.5539398193359375, -0.0976715087890625, 0.0976715087890625, 0.5539398193359375, -4.5,6.4) ">
<use xlink:href="#Layer0_3_MEMBER_0_FILL"/>
</g>

<g transform="matrix( 0.5539398193359375, 0.0976715087890625, -0.0976715087890625, 0.5539398193359375, 5.55,-6.1) ">
<use xlink:href="#Layer0_3_MEMBER_1_FILL"/>
</g>

<g transform="matrix( 1, 0, 0, 1, 0,-1.05) ">
<use xlink:href="#Layer0_4_1_STROKES"/>
</g>
</g>
</svg>
